X:1
T: The Bridge of Alford
C:Alexander Walker
R:Strathspey
Q: 128
K:Gm
M:4/4
L:1/16
|:F2|GG,3 B,3D G3A B3c|FC3 A3G F6A2|GG,3 B,3D G3A B3c|BABc d3^F G6F2|
GG,3 B,3D G3A B3c|FC3 A3G F6A2|GG,3 B,3D G3A B3c|BABc d3^F G6B2|
Gg3 g4 dg3 b3g|a3f g3d f3c A3F|G3D F3C D3B, C3A,|B,G,B,C DB,3 G,6F2|
Gg3 g4 dg3 b3g|a3f g3d f3c A3c|B3A Bg3 A3F A3f|AF3 d3^F G6:|
